X:2
T:Ağlama Yar Ağlama
O:Dikranagerd (Diyarbakır, Turkey) 
Z:Avetik Topchyan
L:1/4
P:(ABA)
M:4/4
Q:1/4=120
K:EPhr clef=treble transpose=-12 
%%MIDI  program 24       % Instrument
[P:A] z2 GA          |: A/>B/A/G/  A2 | z A/B/ A B         | A/ G ^/F/      G/A/ F | z G/A/ G A | G/>A/G/^/F/ E2           | z   ^/F/E/ F G         |1 E2 (D/E/^/F/G/     | A2) G A :|2 x2 E2 & E,2 x2 |]
[P:B] z2 E  B        |  B2         B2 | z B/B/ B c         | B  A B/>A/G/A/        | G A/B/ A B | A/          G  ^/F/ G/A/ F | z>E G      A           |  G  ^/F/E/        F2  |
x2    E  B  & E,2 x2 |  (B2{d^cd}) B2 | x B/B/ B c & E, x3 | B  A B/>A/G/A/        | G A/B/ A B | A/          G  ^/F/ G/A/ F | x   E      G A & E, x3 |  G  ^/F/E/        F2 ||
W:Ağlama yar ağlama anam
W:Mavi yazma bağlama
W:Mavi yazma tez solar anam
W:Ciğerimi dağlama
W:
W:Elmada al olaydın anam
W:Selvi de dal olaydın
W:Bana göre yar mı yok anam
W:İstedim sen olaydın

